swiss/communes/0562.svg

<?xml version="1.0" encoding="UTF-8" standalone="no"?>
<svg
   xmlns:dc="http://purl.org/dc/elements/1.1/"
   xmlns:cc="http://web.resource.org/cc/"
   xmlns:rdf="http://www.w3.org/1999/02/22-rdf-syntax-ns#"
   xmlns:svg="http://www.w3.org/2000/svg"
   xmlns="http://www.w3.org/2000/svg"
   xmlns:xlink="http://www.w3.org/1999/xlink"
   xmlns:sodipodi="http://sodipodi.sourceforge.net/DTD/sodipodi-0.dtd"
   xmlns:inkscape="http://www.inkscape.org/namespaces/inkscape"
   height="763"
   width="603"
   version="1.0"
   id="svg20"
   sodipodi:version="0.32"
   inkscape:version="0.44.1"
   sodipodi:docname="Aeschi bei Spiez-coat of arms.svg"
   sodipodi:docbase="F:\Mis Documentos\Mis imágenes\Encyclopédie\Escudos de Suiza">
  <metadata
     id="metadata31">
    <rdf:RDF>
      <cc:Work
         rdf:about="">
        <dc:format>image/svg+xml</dc:format>
        <dc:type
           rdf:resource="http://purl.org/dc/dcmitype/StillImage" />
        <dc:date>07-AUG-2006</dc:date>
        <dc:creator>
          <cc:Agent>
            <dc:title>Jérôme BLUM (wagner51)</dc:title>
          </cc:Agent>
        </dc:creator>
        <cc:license
           rdf:resource="http://creativecommons.org/licenses/GPL/2.0/" />
        <dc:coverage />
        <dc:description>Gabarit pour le Projet:Blasons de WIkipédia</dc:description>
        <dc:subject>
          <rdf:Bag>
            <rdf:li>blason suisse modèle gabarit projet blasons</rdf:li>
          </rdf:Bag>
        </dc:subject>
        <dc:language>fr</dc:language>
        <dc:title>Gabrit d'un blason suisse</dc:title>
      </cc:Work>
      <cc:License
         rdf:about="http://creativecommons.org/licenses/GPL/2.0/">
        <cc:permits
           rdf:resource="http://web.resource.org/cc/Reproduction" />
        <cc:permits
           rdf:resource="http://web.resource.org/cc/Distribution" />
        <cc:requires
           rdf:resource="http://web.resource.org/cc/Notice" />
        <cc:permits
           rdf:resource="http://web.resource.org/cc/DerivativeWorks" />
        <cc:requires
           rdf:resource="http://web.resource.org/cc/ShareAlike" />
        <cc:requires
           rdf:resource="http://web.resource.org/cc/SourceCode" />
      </cc:License>
    </rdf:RDF>
  </metadata>
  <defs
     id="defs29">
    <linearGradient
       id="linearGradient2893">
      <stop
         style="stop-color:#ffffff;stop-opacity:0.3137255;"
         offset="0"
         id="stop2895" />
      <stop
         id="stop2897"
         offset="0.19"
         style="stop-color:#ffffff;stop-opacity:0.25098041;" />
      <stop
         style="stop-color:#6b6b6b;stop-opacity:0.1254902;"
         offset="0.60000002"
         id="stop2901" />
      <stop
         style="stop-color:#000000;stop-opacity:0.1254902;"
         offset="1"
         id="stop2899" />
    </linearGradient>
    <linearGradient
       id="linearGradient2955">
      <stop
         style="stop-color:white;stop-opacity:0;"
         offset="0"
         id="stop2965" />
      <stop
         style="stop-color:black;stop-opacity:0.64583331;"
         offset="1"
         id="stop2959" />
    </linearGradient>
    <radialGradient
       inkscape:collect="always"
       xlink:href="#linearGradient2893"
       id="radialGradient3236"
       gradientUnits="userSpaceOnUse"
       gradientTransform="matrix(1.215027,1.531577e-24,1.464684e-23,1.266667,-839.1924,-490.4894)"
       cx="858.04236"
       cy="579.93323"
       fx="858.04236"
       fy="579.93323"
       r="300" />
  </defs>
  <sodipodi:namedview
     inkscape:window-height="682"
     inkscape:window-width="1024"
     inkscape:pageshadow="2"
     inkscape:pageopacity="0.0"
     guidetolerance="10.0"
     gridtolerance="10.0"
     objecttolerance="10.0"
     borderopacity="1.0"
     bordercolor="#666666"
     pagecolor="#ffffff"
     id="base"
     inkscape:zoom="0.57751606"
     inkscape:cx="205.7577"
     inkscape:cy="474.15472"
     inkscape:window-x="-4"
     inkscape:window-y="-4"
     inkscape:current-layer="layer2"
     showgrid="true"
     showguides="true"
     inkscape:guide-bbox="true" />
  <desc
     id="desc22">Coat of Arms of Canton of Freiburg (Fribourg)</desc>
  <g
     inkscape:groupmode="layer"
     id="layer1"
     inkscape:label="Fond écu"
     sodipodi:insensitive="true">
    <path
       id="path1899"
       d="M 1.5,1.49998 L 1.5,460.3679 C 1.5,626.6785 135.81456,761.5 301.49999,761.5 C 467.18543,761.5 601.5,626.6785 601.5,460.3679 L 601.5,1.49998 L 1.5,1.49998 z "
       style="fill:white;fill-opacity:1" />
  </g>
  <g
     inkscape:groupmode="layer"
     id="layer2"
     inkscape:label="Meubles"
     sodipodi:insensitive="true">
    <g
       id="g5487"
       transform="matrix(4.08828,0,0,4.08828,-2547.02,-2340.54)">
      <path
         sodipodi:nodetypes="cccccccccccc"
         id="path2828"
         d="M 667.43851,641.46311 C 669.00031,624.11734 647.83761,619.62391 637.21996,634.70766 C 649.42004,631.99528 654.80417,636.09886 655.17077,645.21996 C 647.0731,637.3072 633.0608,640.12793 630.68306,654.19536 C 639.02878,649.9817 645.29561,651.74486 650,658 C 641.76126,655.70448 628.76699,654.84855 627.73226,673 C 633.51144,668.66824 639.90421,667.60896 647.04919,670.56149 C 637.85309,671.5206 624.01383,676.12028 630,693 C 633.37351,686.69005 637.09511,680.98134 645.38932,683.17077 C 629.40278,692.18227 630.96084,701.6369 636.19536,709.53689 C 637.19493,704.10899 637.68373,698.45408 646.63078,696.5584 C 645.39602,680.87144 654.12758,641.64365 667.43851,641.46311 z "
         style="fill:black;fill-opacity:1;fill-rule:evenodd;stroke:white;stroke-width:1px;stroke-linecap:butt;stroke-linejoin:miter;stroke-opacity:1" />
      <path
         sodipodi:nodetypes="ccccccccccscssscccccc"
         id="path1939"
         d="M 770,618 C 759.7099,630.14865 756.04557,644.75633 753.07379,659.0246 C 748.20308,657.18126 747.66452,652.08881 746.24315,647.65847 C 743.19594,659.16898 741.12995,670.92479 741.70766,683.34153 C 738.58737,679.72805 734.54683,676.72805 733.9754,671.41532 C 732.71809,682.55171 730.31717,694.2599 730.68306,704.58468 C 727.64228,703.89372 725.43902,700.69021 723.29234,697.31694 C 722.23091,706.9237 723.43998,717.03502 714.65847,724.92621 C 722.41203,704.39963 703.71048,692.67369 694.09838,687.43992 C 677.9311,678.61882 659.95955,671.44329 658.551,645.8265 C 660.12354,671.37869 677.90683,678.62646 694.09838,687.43992 C 703.77064,692.70477 722.30126,704.48128 714.65847,724.92621 C 693.22442,746.26042 678.63659,724.74749 670.95644,719.17499 C 659.6113,710.94328 646.83976,704.24866 646.17691,696.18463 C 644.51248,675.93554 654.07379,646.47836 663.29234,641.9754 C 675.82336,635.85441 691.36613,669.70766 691.36613,669.70766 C 693.72462,673.80637 697.30218,675.43221 701.0246,675.60928 C 697.26625,675.25865 693.84338,673.90157 691.36613,669.70766 C 680.3233,595.89234 680.68228,606.57726 715,573 L 770,573 L 770,618 z "
         style="fill:black;fill-opacity:1;fill-rule:evenodd;stroke:white;stroke-width:1px;stroke-linecap:butt;stroke-linejoin:miter;stroke-opacity:1" />
      <path
         sodipodi:nodetypes="cccc"
         id="path3715"
         d="M 770,598 C 754.2609,615.3984 740.02494,638.73986 728.24455,662.31694 C 737.11832,635.94706 754.42678,613.45786 770,593 L 770,598 z "
         style="fill:white;fill-opacity:1;fill-rule:evenodd;stroke:white;stroke-width:1px;stroke-linecap:butt;stroke-linejoin:miter;stroke-opacity:1" />
    </g>
  </g>
  <g
     inkscape:groupmode="layer"
     id="layer3"
     inkscape:label="Reflet final"
     style="display:inline"
     sodipodi:insensitive="true">
    <path
       style="fill:url(#radialGradient3236);fill-opacity:1"
       d="M 1.5,1.5 L 1.5,460.3679 C 1.5,626.67854 135.81454,761.5 301.49993,761.5 C 467.1854,761.5 601.5,626.67854 601.5,460.3679 L 601.5,1.5 L 1.5,1.5 z "
       id="path2346" />
  </g>
  <g
     inkscape:groupmode="layer"
     id="layer4"
     inkscape:label="Contour final"
     style="display:inline"
     sodipodi:insensitive="true">
    <path
       style="fill:none;fill-opacity:1;stroke:#000000;stroke-width:3;stroke-miterlimit:4;stroke-dasharray:none;stroke-opacity:1"
       d="M 1.5,1.5 L 1.5,460.36794 C 1.5,626.67854 135.81454,761.5 301.49993,761.5 C 467.1854,761.5 601.5,626.67854 601.5,460.36794 L 601.5,1.5 L 1.5,1.5 z "
       id="path3239" />
  </g>
</svg>

<svg xmlns="http://www.w3.org/2000/svg" xmlns:xlink="http://www.w3.org/1999/xlink" height="763" width="603" version="1.0"><defs><radialGradient xlink:href="#a" id="b" gradientUnits="userSpaceOnUse" gradientTransform="matrix(1.21503 0 0 1.26667 -839.192 -490.49)" cx="858.042" cy="579.933" fx="858.042" fy="579.933" r="300"/><linearGradient id="a"><stop style="stop-color:#fff;stop-opacity:.3137255" offset="0"/><stop offset=".19" style="stop-color:#fff;stop-opacity:.25098041"/><stop style="stop-color:#6b6b6b;stop-opacity:.1254902" offset=".6"/><stop style="stop-color:#000;stop-opacity:.1254902" offset="1"/></linearGradient></defs><path d="M1.5 1.5v458.868c0 166.31 134.315 301.132 300 301.132s300-134.822 300-301.132V1.5H1.5z" style="fill:#fff;fill-opacity:1"/><path d="M667.439 641.463c1.561-17.346-19.601-21.84-30.219-6.755 12.2-2.713 17.584 1.39 17.95 10.512-8.097-7.913-22.11-5.092-24.487 8.975 8.346-4.213 14.613-2.45 19.317 3.805-8.239-2.296-21.233-3.151-22.268 15 5.78-4.332 12.172-5.391 19.317-2.439-9.196.96-23.035 5.56-17.049 22.439 3.374-6.31 7.095-12.019 15.39-9.83-15.987 9.012-14.43 18.467-9.195 26.367 1-5.428 1.489-11.083 10.436-12.979-1.235-15.687 7.497-54.914 20.808-55.095z" style="fill:#000;fill-opacity:1;fill-rule:evenodd;stroke:#fff;stroke-width:1px;stroke-linecap:butt;stroke-linejoin:miter;stroke-opacity:1" transform="translate(-2547.02 -2340.54) scale(4.08828)"/><path d="M770 618c-10.29 12.149-13.954 26.756-16.926 41.025-4.87-1.844-5.41-6.936-6.83-11.367-3.048 11.511-5.114 23.267-4.536 35.684-3.12-3.614-7.161-6.614-7.733-11.927-1.257 11.137-3.658 22.845-3.292 33.17-3.04-.691-5.244-3.895-7.39-7.268-1.062 9.607.147 19.718-8.635 27.61 7.754-20.527-10.948-32.253-20.56-37.487-16.167-8.821-34.138-15.997-35.547-41.614 1.573 25.553 19.356 32.8 35.547 41.614 9.673 5.265 28.203 17.041 20.56 37.486-21.434 21.334-36.021-.179-43.702-5.751-11.345-8.232-24.116-14.926-24.78-22.99-1.664-20.25 7.898-49.707 17.116-54.21 12.531-6.12 28.074 27.733 28.074 27.733 2.359 4.098 5.936 5.724 9.659 5.901-3.759-.35-7.182-1.707-9.659-5.901C680.323 595.892 680.682 606.578 715 573h55v45z" style="fill:#000;fill-opacity:1;fill-rule:evenodd;stroke:#fff;stroke-width:1px;stroke-linecap:butt;stroke-linejoin:miter;stroke-opacity:1" transform="translate(-2547.02 -2340.54) scale(4.08828)"/><path d="M770 598c-15.74 17.398-29.975 40.74-41.755 64.317 8.873-26.37 26.182-48.86 41.755-69.317v5z" style="fill:#fff;fill-opacity:1;fill-rule:evenodd;stroke:#fff;stroke-width:1px;stroke-linecap:butt;stroke-linejoin:miter;stroke-opacity:1" transform="translate(-2547.02 -2340.54) scale(4.08828)"/><g style="display:inline"><path style="fill:url(#b);fill-opacity:1" d="M1.5 1.5v458.868c0 166.31 134.315 301.132 300 301.132s300-134.821 300-301.132V1.5H1.5z"/></g><g style="display:inline"><path style="fill:none;fill-opacity:1;stroke:#000;stroke-width:3;stroke-miterlimit:4;stroke-dasharray:none;stroke-opacity:1" d="M1.5 1.5v458.868c0 166.31 134.315 301.132 300 301.132s300-134.821 300-301.132V1.5H1.5z"/></g></svg>
